X: 1
T: Ett barn är fött på denna dag [F]
O: Sweden
Z: John Chambers <jc:trillian.mit.edu>
M: C
L: 1/8
K: F
|: "C7"C2 \
| "F"F2 F2 "C7"G2 G2 \
| "F"A2 A2 c3 B \
| A2 BA "C7"G2 AG \
| "F"F4 z2 :| F2 \
| "C"c2 "F"c2 "Dm"d2 "Bb"d2 \
| "C7"G2 (3GAB "F"A2 AB |
| "F"c2 c2 "G7"d2 d2 \
| "C"G4 z2 || "C7"C2 \
| "F"F2 F2 "C7"G2 G2 \
| "F"A2 A2 c3 B \
| A2 BA "C7"G2 AG \
| "F"F4 z2 |]
